src/images/svg/symbols/copper-usd.svg

<svg xmlns="http://www.w3.org/2000/svg" width="32" height="32"><g transform="translate(2 2)" fill="none" fill-rule="evenodd"><circle cx="9" cy="9" r="9" fill="#F3986F" fill-rule="nonzero"/><path fill="#FFBEA0" fill-rule="nonzero" d="M14.738 2.066a9.04 9.04 0 0 0-1.251-.87l-12.29 12.29c.254.443.545.861.87 1.252l12.67-12.672zM4.344 16.703a8.99 8.99 0 0 1-1.775-1.407L15.296 2.569a8.99 8.99 0 0 1 1.407 1.775l-12.36 12.36zm2.629 1.067a8.806 8.806 0 0 1-.828-.232L17.538 6.145c.09.27.168.547.233.828L6.973 17.77z"/><g fill-rule="nonzero" transform="translate(1 1)"><circle cx="8" cy="8" r="7.313" fill="#E76944"/><path fill="#DB613D" d="M8 15.313A7.312 7.312 0 0 0 15.312 8c0-1.24-.308-2.407-.852-3.43a14.53 14.53 0 0 0-9.89 9.89 7.283 7.283 0 0 0 3.43.853z"/></g><path fill="#BC5C3F" fill-rule="nonzero" d="M14.444 4.118A7.313 7.313 0 0 0 4.118 14.444 7.292 7.292 0 0 1 1.688 9a7.311 7.311 0 0 1 12.756-4.882z"/><path fill="#FFF" fill-rule="nonzero" d="M10 19a9 9 0 1 1 18.001.001A9 9 0 0 1 10 19z"/><path fill="#F44336" d="M18.62 10c-1.734.1-3.335.69-4.668 1.633h10.386A8.952 8.952 0 0 0 19.671 10H18.62zm-6.428 3.266a8.98 8.98 0 0 0-1.067 1.633h16.041a8.984 8.984 0 0 0-1.068-1.633H12.192zm-2.155 4.915c.05-.56.15-1.106.298-1.633h17.317c.148.527.25 1.072.299 1.633H10.037zm.003 1.633a9.06 9.06 0 0 0 .308 1.633H27.64a8.89 8.89 0 0 0 .308-1.633H10.041zm2.04 4.899a8.953 8.953 0 0 1-1.083-1.633H26.99a9.053 9.053 0 0 1-1.082 1.633H12.08zm6.533 3.256.028.001.027.001a8.865 8.865 0 0 0 5.454-1.624H13.866a8.861 8.861 0 0 0 4.747 1.622z"/><path fill="#283991" fill-rule="nonzero" d="M18.808 10.005a8.992 8.992 0 0 0-8.77 8.179h8.77v-8.18z"/><path fill="#EFEFEF" fill-rule="nonzero" d="m11.8 15.085.137.421h.444l-.36.26.138.422-.359-.261-.359.261.137-.422-.359-.26h.444zm0 1.488.137.421h.444l-.36.26.138.421-.359-.26-.359.26.137-.421-.359-.26h.444zm1.49-3.72.138.422h.443l-.359.26.137.421-.359-.26-.359.26.138-.421-.36-.26h.444zm0 1.488.138.421h.443l-.359.26.137.422-.359-.26-.359.26.138-.422-.36-.26h.444zm0 1.488.138.421h.443l-.359.26.137.421-.359-.26-.359.26.138-.421-.36-.26h.444zm-2.622 1.102-.137-.42.359-.261h-.444l-.01-.03c-.049.15-.093.302-.133.456l.006-.005.359.26zm.772-2.231.36-.26.359.26-.138-.421.36-.26h-.444l-.137-.422-.138.421H11.5l-.09.139.169.122-.137.421zm1.85-2.492.36.26-.138-.42.36-.261h-.257a8.636 8.636 0 0 0-.63.516l-.054.165.36-.26zm1.132-.483.36-.26.358.26-.137-.422.359-.26h-.444l-.018-.056c-.15.076-.3.156-.445.24l.104.076-.137.422zm.359.385.137.421h.444l-.359.26.137.421-.359-.26-.359.26.137-.421-.359-.26h.444zm0 1.487.137.421h.444l-.359.261.137.421-.359-.26-.359.26.137-.421-.359-.261h.444zm0 1.488.137.421h.444l-.359.26.137.422-.359-.261-.359.261.137-.422-.359-.26h.444zm0 1.488.137.421h.444l-.359.26.137.421-.359-.26-.359.26.137-.421-.359-.26h.444zm1.491-5.207.137.421h.444l-.359.26.137.421-.359-.26-.359.26.137-.421-.359-.26h.444zm0 1.487.137.422h.444l-.359.26.137.421-.359-.26-.359.26.137-.421-.359-.26h.444zm0 1.488.137.421h.444l-.359.26.137.422-.359-.26-.359.26.137-.422-.359-.26h.444zm0 1.488.137.421h.444l-.359.26.137.421-.359-.26-.359.26.137-.421-.359-.26h.444zm1.491-5.207.137.421h.444l-.359.26.137.422-.359-.261-.359.261.137-.422-.359-.26h.444zm0 1.488.137.421h.444l-.359.26.137.421-.359-.26-.359.26.137-.421-.359-.26h.444zm0 1.487.137.421h.444l-.359.261.137.421-.359-.26-.359.26.137-.421-.359-.261h.444zm0 1.488.137.421h.444l-.359.26.137.422-.359-.261-.359.261.137-.422-.359-.26h.444zm0 1.488.137.421h.444l-.359.26.137.421-.359-.26-.359.26.137-.421-.359-.26h.444z"/></g></svg>

<svg xmlns="http://www.w3.org/2000/svg" width="32" height="32" viewBox="0 0 32 32">
    <g fill="none" fill-rule="evenodd">
        <g>
            <g>
                <g>
                    <g>
                        <g>
                            <g>
                                <g transform="translate(-643.000000, -1844.000000) translate(0.000000, 1273.000000) translate(324.000000, 498.000000) translate(0.000000, 48.000000) translate(154.000000, 25.000000) translate(165.000000, 0.000000) translate(2.000000, 2.000000)">
                                    <circle cx="9" cy="9" r="9" fill="#F3986F" fill-rule="nonzero"/>
                                    <path fill="#FFBEA0" fill-rule="nonzero" d="M14.738 2.066c-.39-.324-.81-.615-1.251-.87l-12.29 12.29c.254.443.545.861.87 1.252L14.737 2.066zM4.344 16.703c-.65-.393-1.247-.867-1.775-1.407L15.296 2.569c.54.528 1.014 1.125 1.407 1.775l-12.36 12.36zM6.973 17.77c-.281-.064-.558-.142-.828-.232L17.538 6.145c.09.27.168.547.233.828L6.973 17.77z"/>
                                    <g fill-rule="nonzero" transform="translate(1.000000, 1.000000)">
                                        <circle cx="8" cy="8" r="7.313" fill="#E76944"/>
                                        <path fill="#DB613D" d="M8 15.313c4.039 0 7.312-3.274 7.312-7.313 0-1.24-.308-2.407-.852-3.43C9.7 5.948 5.948 9.7 4.57 14.46c1.023.544 2.19.853 3.43.853z"/>
                                    </g>
                                    <path fill="#BC5C3F" fill-rule="nonzero" d="M14.444 4.118C13.15 2.957 11.44 2.25 9.562 2.25c-4.038 0-7.312 3.274-7.312 7.313 0 1.876.707 3.587 1.868 4.881-1.492-1.338-2.43-3.282-2.43-5.444C1.688 4.961 4.96 1.687 9 1.687c2.162 0 4.106.94 5.444 2.431z"/>
                                    <path fill="#FFF" fill-rule="nonzero" d="M10 19c0-4.97 4.03-9 9-9s9 4.03 9 9-4.03 9-9 9-9-4.03-9-9z"/>
                                    <path fill="#F44336" d="M18.62 10c-1.734.1-3.335.69-4.668 1.633h10.386C23.005 10.69 21.405 10.1 19.671 10H18.62zm-6.428 3.266c-.412.501-.77 1.049-1.067 1.633h16.041c-.298-.584-.655-1.132-1.068-1.633H12.192zm-2.155 4.915c.05-.56.15-1.106.298-1.633h17.317c.148.527.25 1.072.299 1.633H10.037zm.003 1.633c.053.561.158 1.107.308 1.633H27.64c.151-.526.256-1.072.308-1.633H10.041zm2.04 4.899c-.419-.501-.781-1.049-1.083-1.633H26.99c-.302.584-.665 1.132-1.082 1.633H12.08zm6.533 3.256l.028.001.027.001c.108.004.217.006.326.006 1.907 0 3.673-.604 5.128-1.63H13.866c1.357.958 2.986 1.547 4.747 1.622z"/>
                                    <path fill="#283991" fill-rule="nonzero" d="M18.808 10.005c-4.609.094-8.365 3.652-8.77 8.179h8.77v-8.18z"/>
                                    <path fill="#EFEFEF" fill-rule="nonzero" d="M11.8 15.085L11.937 15.506 12.381 15.506 12.021 15.766 12.159 16.188 11.8 15.927 11.441 16.188 11.578 15.766 11.219 15.506 11.663 15.506zM11.8 16.573L11.937 16.994 12.381 16.994 12.021 17.254 12.159 17.675 11.8 17.415 11.441 17.675 11.578 17.254 11.219 16.994 11.663 16.994zM13.29 12.853L13.428 13.275 13.871 13.275 13.512 13.535 13.649 13.956 13.29 13.696 12.931 13.956 13.069 13.535 12.709 13.275 13.153 13.275zM13.29 14.341L13.428 14.762 13.871 14.762 13.512 15.022 13.649 15.444 13.29 15.184 12.931 15.444 13.069 15.022 12.709 14.762 13.153 14.762zM13.29 15.829L13.428 16.25 13.871 16.25 13.512 16.51 13.649 16.931 13.29 16.671 12.931 16.931 13.069 16.51 12.709 16.25 13.153 16.25zM10.668 16.931l-.137-.42.359-.261h-.444l-.01-.03c-.049.15-.093.302-.133.456l.006-.005.359.26zM11.44 14.7l.36-.26.359.26-.138-.421.36-.26h-.444l-.137-.422-.138.421H11.5l-.09.139.169.122-.137.421zM13.29 12.208l.36.26-.138-.42.36-.261h-.257c-.218.162-.428.334-.63.516l-.054.165.36-.26zM14.422 11.725l.36-.26.358.26-.137-.422.359-.26h-.444l-.018-.056c-.15.076-.3.156-.445.24l.104.076-.137.422zM14.781 12.11L14.918 12.531 15.362 12.531 15.003 12.791 15.14 13.212 14.781 12.952 14.422 13.212 14.559 12.791 14.2 12.531 14.644 12.531zM14.781 13.597L14.918 14.018 15.362 14.018 15.003 14.279 15.14 14.7 14.781 14.44 14.422 14.7 14.559 14.279 14.2 14.018 14.644 14.018zM14.781 15.085L14.918 15.506 15.362 15.506 15.003 15.766 15.14 16.188 14.781 15.927 14.422 16.188 14.559 15.766 14.2 15.506 14.644 15.506zM14.781 16.573L14.918 16.994 15.362 16.994 15.003 17.254 15.14 17.675 14.781 17.415 14.422 17.675 14.559 17.254 14.2 16.994 14.644 16.994zM16.272 11.366L16.409 11.787 16.853 11.787 16.494 12.047 16.631 12.468 16.272 12.208 15.913 12.468 16.05 12.047 15.691 11.787 16.135 11.787zM16.272 12.853L16.409 13.275 16.853 13.275 16.494 13.535 16.631 13.956 16.272 13.696 15.913 13.956 16.05 13.535 15.691 13.275 16.135 13.275zM16.272 14.341L16.409 14.762 16.853 14.762 16.494 15.022 16.631 15.444 16.272 15.184 15.913 15.444 16.05 15.022 15.691 14.762 16.135 14.762zM16.272 15.829L16.409 16.25 16.853 16.25 16.494 16.51 16.631 16.931 16.272 16.671 15.913 16.931 16.05 16.51 15.691 16.25 16.135 16.25zM17.763 10.622L17.9 11.043 18.344 11.043 17.985 11.303 18.122 11.725 17.763 11.464 17.404 11.725 17.541 11.303 17.182 11.043 17.626 11.043zM17.763 12.11L17.9 12.531 18.344 12.531 17.985 12.791 18.122 13.212 17.763 12.952 17.404 13.212 17.541 12.791 17.182 12.531 17.626 12.531zM17.763 13.597L17.9 14.018 18.344 14.018 17.985 14.279 18.122 14.7 17.763 14.44 17.404 14.7 17.541 14.279 17.182 14.018 17.626 14.018zM17.763 15.085L17.9 15.506 18.344 15.506 17.985 15.766 18.122 16.188 17.763 15.927 17.404 16.188 17.541 15.766 17.182 15.506 17.626 15.506zM17.763 16.573L17.9 16.994 18.344 16.994 17.985 17.254 18.122 17.675 17.763 17.415 17.404 17.675 17.541 17.254 17.182 16.994 17.626 16.994z"/>
                                </g>
                            </g>
                        </g>
                    </g>
                </g>
            </g>
        </g>
    </g>
</svg>
